X:1
T:Ètude-Tableaux No. 1
T:Ètude-Tableaux No. 1
T:Op. 39 No. 1
T:Sergei Rachmaninoff
C:Sergei Rachmaninoff
%%score { ( 1 4 ) | ( 2 3 ) }
L:1/8
Q:1/4=130
M:4/4
K:Eb
V:1 treble nm="Piano" snm="Pno."
V:4 treble 
V:2 bass 
V:3 bass 
V:1
"^Allegro agitato"!p![I:staff +1] (3(A,/C,/C/[I:staff -1](3_D/A,/A/!<(! (3=D/C/c/(3A/E/e/!<)! (3D/C/c/(3E/A,/c/!>(! (3=B,/A,/D/(3C/G,/E/)!>)! | %1
[I:staff +1] (3(A,/C,/C/[I:staff -1](3_D/A,/A/ (3=D/C/c/(3A/E/e/ (3D/C/c/(3E/A,/c/!>(! (3=B,/A,/D/(3C/G,/E/)!>)! | %2
[I:staff +1] (3(A,/C,/C/[I:staff -1](3_D/A,/A/"_dim." (3=D/C/c/(3A/E/e/) (3z/ z/ (C/(3F/C/c/ (3^F/D/d/(3c/G/g/) | %3
!p!"_cresc." (3z/ z/ (E/(3C/^F/c/ (3G/D/d/(3E/=B/e/ (3G/d/g/(3e/A/a/!f! (3B/F/^f/(3c/G/g/) | %4
 (3(^F/D/d/(3=B/E/e/"_dim." (3=B,/E/B/(3A/C/c/ (3C/G,/G/(3^G,/=E/^G/[I:staff +1] (3_C/_E,/_E/(3=G,/F,/=B,/) | %5
!p! (3(A,/C,/C/[I:staff -1](3_D/A,/A/!<(! (3=D/C/c/(3A/E/e/!<)! (3D/C/c/(3E/A,/c/!>(! (3=B,/A,/D/(3C/G,/E/)!>)! | %6
[I:staff +1] (3(A,/C,/C/[I:staff -1](3_D/A,/A/!<(! (3=D/C/c/(3A/E/e/!<)! (3D/C/c/(3E/A,/c/!>(! (3=B,/A,/D/(3C/G,/E/)!>)! | %7
[I:staff +1] (3(A,/C,/C/[I:staff -1](3_D/A,/A/ (3=D/C/c/(3A/E/e/) (3z/ z/ (C/(3F/C/c/ (3^F/D/d/(3c/G/g/) | %8
[M:2/4] (3z/ z/ (E/!<(!(3A/E/e/ (3=A/F/f/!<)!(3e/B/b/) | %9
[M:4/4]!f! (3(b/b'/e'/(3g'/c'/g/ (3d'/^f/B/(3g/c'/c/) (3(=a/e/=A/(3e/b/B/ (3f/^c/^F/(3G/c/^C/) | %10
[Q:1/4=130] (3z!mf![Q:1/4=125]"^.8"!<(! [egb][Q:1/4=121]"^.7"[egb][Q:1/4=117]"^.5" (3[egb][Q:1/4=113]"^.3"[dgb][Q:1/4=109]"^.2"[dgb][Q:1/4=105] (3[dgb][Q:1/4=100]"^.8"[^c^fb][Q:1/4=96]"^.7"[cfb]!<)![Q:1/4=92]"^.5" [cfb]/[Q:1/4=89]"^.4"[c=f=a]/[Q:1/4=86]"^.3"[cfa]/[Q:1/4=83]"^.1"[cfa]/ | %11
[Q:1/4=80]!ff! [=A^cf=a][Q:1/4=130] (3(!>![f'=a']/[a^c']/[f'a']/ (3[ac']/[f'a']/[ac']/(3[e'g']/[gb]/[e'g']/) z (3(!>![f'a']/[ac']/[f'a']/ (3[ac']/[f'a']/[ac']/(3[e'g']/[gb]/[e'g']/) | %12
 z (3(!>![d'f']/[fb]/[d'f']/ (3[fb]/[d'f']/[fb]/(3[be']/[eg]/[be']/) z (3(!>![bd']/[d^f]/[bd']/ (3[df]/[bd']/[df]/(3[=a^c']/[^cf]/[ac']/) | %13
 !>![Bgb]!mf! (!tenuto![f=a]/4[A^c]/4[fa]/4[Ac]/4 [fa]/4[Ac]/4[fa]/4[Ac]/4(3[eg]/[GB]/[eg]/) z (!tenuto![fa]/4[Ac]/4[fa]/4[Ac]/4 [fa]/4[Ac]/4[fa]/4[Ac]/4(3[eg]/[GB]/[eg]/) | %14
"_dim." z (3(!tenuto![df]/[FB]/[df]/ (3[FB]/[df]/[FB]/(3[Be]/[EG]/) z/ z (3(!tenuto![Bd]/[D^F]/[Bd]/ (3[DF]/[Bd]/[DF]/(3[=A^c]/[^CF]/) z/ | %15
!p! (3(!>![B,G]/D/B/(3^F/E/=A/) (3(!>![B,G]/D/B/(3F/E/A/) (3(!>![B,G]/D/B/(3F/E/A/) (3(!>![B,G]/D/B/(3F/^C/A/) | %16
 (3([B,G]/D/B/)!p!(3(G/E/c/ (3G/D/=B/(3G/^C/_B/ (3^F/C/=A/)(3(=F/D/_A/ (3=E/!<(!G,/G/(3_E/=A,/G/!<)! | %17
[M:2/4] (3D/B,/G/(3^C/=A,/^F/!>(! (3=C/_A,/B/(3C/!>)!=A,/F/) | %18
[M:4/4]!p![I:staff +1] (3(B,/D,/D/[I:staff -1](3E/B,/B/ (3=E/D/d/(3B/F/f/ (3E/D/d/(3F/B,/c/ (3^C/B,/E/(3D/=A,/F/) | %19
[I:staff +1] (3(B,/C,/C/[I:staff -1](3_D/B,/B/ (3=D/C/c/(3B/E/e/ (3D/C/c/(3E/B,/B/!<(! (3D/=A,/=A/!<)!!>(!(3E/B,/B/)!>)! | %20
[I:staff +1] (3(A,/C,/C/[I:staff -1](3_D/A,/A/ (3=D/C/c/(3A/E/e/ (3D/C/c/(3E/A,/c/ (3=B,/A,/D/(3C/G,/E/) | %21
[I:staff +1] (3(A,/B,,/B,/[I:staff -1](3C/A,/A/ (3_D/C/c/(3A/=D/d/!<(! (3^C/G,/G/(3D/A,/A/!<)! (3C/!>(!G,/G/(3D/A,/A/)!>)! | %22
[M:2/4] (3z/ z/ (B,/(3=C/G,/G/ (3_D/G,/G/"_cresc."(3G/=D/=d/) | %23
[M:4/4][Q:1/4=130] (3(^F/[Q:1/4=127]"^.9"B,/[Q:1/4=125]"^.8"^c/[Q:1/4=123]"^.8"(3G/[Q:1/4=121]"^.7"D/[Q:1/4=119]"^.6"d/[Q:1/4=117]"^.5" (3B/[Q:1/4=115]"^.4"F/[Q:1/4=113]"^.3"^f/[Q:1/4=111]"^.2"(3c/[Q:1/4=109]"^.2"G/[Q:1/4=107]"^.1"g/[Q:1/4=105] (3d/[Q:1/4=102]"^.9"B/[Q:1/4=100]"^.8"b/[Q:1/4=98]"^.8"(3f/[Q:1/4=96]"^.7"c/[Q:1/4=94]"^.6"^c'/[Q:1/4=92]"^.5""_dim." (3g/[Q:1/4=90]"^.4"d/[Q:1/4=88]"^.3"d'/[Q:1/4=86]"^.3"(3c'/[Q:1/4=84]"^.2"f/[Q:1/4=82]"^.1"^f'/ | %24
!mf![Q:1/4=80] d')!p!(3(=b/^c'/b/[Q:1/4=80] (7:4:7.^f'/c'/b/^f/=a/b/a/ (7:4:7.d'/b/a/d/=e/f/e/ (7:4:7.b/f/e/=B/d/e/d/ | %25
 (7:4:7.=a/=e/d/=A/=B/^c/B/ (7:4:7.^f/c/B/^F/A/B/A/ (7:4:7d/B/A/D/D/=E/D/ (7:4:7A/E/D/=A,/_B,/=C/B,/- | %26
 [B,D=F])(3(b/c'/b/ (7:4:7.f'/c'/b/f/=a/b/a/ (7:4:7.d'/b/a/d/=e/f/e/ (7:4:7.b/f/e/B/d/e/d/ | %27
 (7:4:7.=a/=e/d/=A/B/c/B/ (7:4:7.f/c/B/F/A/B/A/ (7:4:7d/B/A/D/F/G/F/ (7:4:7B/G/F/B,/B,/C/B,/ | %28
 [B,_DF])(3b/c'/b/ (7:4:7.f'/c'/b/f/_a/b/a/ (7:4:7._d'/b/a/_d/e/f/e/ (7:4:7.b/f/e/B/d/e/d/ | %29
 (7:4:7.a/e/_d/A/B/c/B/ (7:4:7.f/c/B/F/A/B/A/ (7:4:7d/B/A/_D/E/F/E/ (7:4:7B/F/E/B,/B,/C/B,/ | %30
 [B,_D_F](3b/c'/b/ (7:4:7._f'/c'/b/_f/_a/b/a/ (7:4:7._d'/b/a/_d/e/f/e/ (7:4:7.b/f/e/B/d/e/d/ | %31
 (7:4:7.a/e/_d/A/B/c/B/ (7:4:7._f/c/B/_F/A/B/A/ (7:4:7d/B/A/_D/E/F/E/ (7:4:7B/F/E/B,/B,/C/B,/ | %32
[Q:1/4=130] [B,_D]!mp! !>![A_da]/"^scherzando".[Ada]/ z !>![=EA]/.[EA]/ z (3(=B/E/c/ (3=e/_B/E/(3D/B,/G,/ | %33
 _G,) !>![A_da]/.[Ada]/ (3z/ (^F/G/ [=EA]/).[EA]/ (3z/ z/ (=B/(3c/E/c/ (3=e/_B/E/_D/4B,/4=G,/4_G,/4 | %34
 F,) !>![=Ae=a]/.[Aea]/ z !>![_Gc]/.[Gc]/ z (3(=B/E/c/ (3e/_B/E/(3E/=A,/_G,/ | %35
 F,) !>![=Ae=a]/.[Aea]/ (3z/ (=E/F/ [_Gc]/).[Gc]/ (3z/ (A/B/(3=B/_E/c/ (3e/_B/E/E/4=A,/4_G,/4F,/4 | %36
 =E,)!mf! !>![=e=a=e']/.[eae']/ z !>![cec']/.[cec']/ z (3(!>![ce]/[B^d]/[ce]/) z !>![=Ec] | %37
!f! (3F,/^F,/G,/!>![A,=B,] z (3([B,=F]/C/^C/ (3D/E/=E/[Fd]) z[K:bass] [_D,_F,A,] | %38
[M:2/4][D,=F,=A,][E,_G,B,] z (3(F,/^F,/G,/ | %39
[M:4/4] (3!>![A,=B,]/G,/^F,/(3=F,/^F,/_G,/)"_dim." (3(!>![A,B,]/=G,/F,/(3=F,/^F,/_G,/) (3(!>![A,B,]/=G,/F,/(3=F,/^F,/_G,/) (3(!>![A,B,]/=G,/F,/(3=F,/^F,/_G,/) | %40
 (3z/ (=E,/G,/(3!>!A,/_D/) z/ (3z/ (E,/G,/(3!>!=A,/=D/) z/ (3z/ (E,/G,/(3!>!_B,/E/) z/ (3z/ (E,/G,/(3!>!=B,/=E/) z/ | %41
 (3z/ (_D,/_G,/(3!>!=G,/=B,/)D,/ (3z/ (D,/G,/(3!>!=A,/C/)D,/ (3z/ (D,/G,/(3!>!_B,/_D/)D,/ (3z/ (D,/G,/(3!>!B,/E/)D,/ | %42
[M:2/4] (3z/ (_D,/_G,/(3!>!B,/E/)C,/ (3z/ (D,/G,/(3!>!B,/E/)C,/ | %43
[M:4/4] (3z/ (_D,/_G,/(3!>!B,/=E/)C,/ (3z/ (D,/G,/(3!>!B,/E/)C,/ (3z/ (D,/G,/(3!>!B,/E/)C,/ (3z/ (D,/G,/(3!>!B,/E/)C,/ | %44
!f![Q:1/4=130]"^rallent." [_G,B,=E]8[Q:1/4=122]"^.9"[Q:1/4=115]"^.7"[Q:1/4=108]"^.6"[Q:1/4=101]"^.4"[Q:1/4=94]"^.3"[Q:1/4=87]"^.1"[Q:1/4=83]"^.6"[Q:1/4=80] | %45
!p![Q:1/4=130]"^a tempo"[I:staff +1] (3(A,/C,/C/[I:staff -1][K:treble](3_D/A,/A/!<(! (3=D/C/c/(3A/E/e/!<)! (3D/C/c/(3E/A,/c/!>(! (3=B,/A,/D/(3C/G,/E/)!>)! | %46
[I:staff +1] (3(A,/C,/C/[I:staff -1][K:treble](3_D/A,/A/ (3=D/C/c/(3A/E/e/ (3D/C/c/(3E/A,/c/ (3=B,/A,/D/(3C/G,/E/) | %47
[I:staff +1] (3(A,/C,/C/[I:staff -1](3_D/A,/A/ (3=D/C/c/(3A/E/e/) (3z/ z/ (C/(3F/C/c/ (3^F/D/d/(3c/G/g/) | %48
"_cresc." (3z/ z/ (E/(3C/^F/c/ (3G/D/d/(3E/=B/e/ (3G/d/g/(3e/A/a/!f! (3B/F/^f/(3c/G/g/) | %49
 (3(^F/D/d/(3=B/E/e/"_dim." (3=B,/E/B/(3A/C/c/ (3C/G,/G/(3^G,/=E/^G/[I:staff +1] (3_C/_E,/_E/(3=G,/F,/=B,/) | %50
!p! (3(A,/C,/C/[I:staff -1](3_D/A,/A/!<(! (3=D/C/c/(3A/E/e/!<)! (3D/C/c/(3E/A,/c/!>(! (3=B,/A,/D/(3C/G,/E/)!>)! | %51
[I:staff +1] (3(A,/C,/C/[I:staff -1](3_D/A,/A/!<(! (3=D/C/c/(3A/E/e/!<)! (3D/C/c/(3E/A,/c/!>(! (3=B,/A,/D/(3C/G,/E/)!>)! | %52
[M:3/4]!p![I:staff +1] (3(A,/C,/C/[I:staff -1](3_D/A,/A/ (3=D/C/c/(3B/E/e/ (3=B/=E/=e/(3e/c/c'/) | %53
"_poco cresc." (3z/ z/ (C/(3F/C/c/ (3_G/E/e/(3_d/F/f/ (3e/c/c'/(3f/d/_d'/) | %54
 (3z/ z/ (_D/(3_G/D/_d/ (3=G/F/f/(3A/=D/=d/ (3=e/G/g/(3a/d/d'/) | %55
 (3z/ z/ (F/(3=B/F/f/ (3c/F/f/(3=e/G/g/ (3f/A/a/-(3a/f/f'/) | %56
 (3z/ (F/A/(3f/A/a/ (3A/=e/a/!<(!(3_e/=B/=b/ (3_d/a/_d'/!<)!(3b/=d/=d'/ | %57
!f! (3f'/a/a'/(3=e'/g/g'/ (3^c'/=e/e'/(3=b/d/d'/!>(! (3g/B/_b/(3d/A/a/!>)! | %58
[M:4/4] (3A/d/a/(3e/G/g/)!mf! (3[df]/G/g/(3[ce]/G/g/ (3[=Be]/G/g/(3[_Bd]/^F/^f/ (3[A^c]/=F/=f/(3[A=B]/=E/=e/ | %59
 (3A/E/e/(3G/E/e/ (3[df]/G/g/(3[ce]/G/g/ (3[=Be]/G/g/(3[_Bd]/^F/^f/ (3[A^c]/=F/=f/(3[A=B]/=E/=e/ | %60
 (3A/E/e/(3G/E/e/ (3[df]/G/g/(3[ce]/G/g/ (3[=Be]/G/g/(3[Bd]/^F/a/ (3[d^f]/A/a/(3[_df]/A/a/ | %61
 (3[_df]/A/a/(3[c=e]/G/=a/ (3[_eg]/B/b/(3[=d^f]/B/b/ (3[df]/B/b/(3[^c=f]/=A/a/ (3[fa]/=c/c'/(3[e_a]/c/c'/ | %62
[M:2/4] (3[=ea]/c/_d'/(3[fa]/=B/=b/ (3[a^c']/d/=d'/(3[a=c']/d/d'/ | %63
[M:4/4] [dac']/d'/[f=b]/f'/ [d_b]/d'/[f=a]/f'/ [d_a]/d'/[f=a]/f'/ [db]/d'/[f=b]/f'/ | %64
!f! (3[dac'd'][dac'd'][dac'd'] (3[dac'd'][dac'd'][dac'd'] (3[dac'd']"_marcato"[dac'd'][dac'd'] (3[dac'd'][dac'd'][dac'd'] | %65
"_cresc." (3[dg=bd'][dgbd'][dgbd'] (3[dgbd'][dgbd'][dgbd'][Q:1/4=130]"^ritardando" (3[d^f_bd'][Q:1/4=129]"^.9"[dfbd'][Q:1/4=128]"^.8"[dfbd'][Q:1/4=123]"^.8" (3[dfbd'][Q:1/4=109]"^.9"[dfbd'][Q:1/4=80][dfbd'] | %66
[Q:1/4=130]!ff!"^a tempo" (3:2:2!>![^F,B,D^F]([d^f]/(3!>![bd']/[df]/[bd']/ (3[df]/[bd']/[df]/(3!>![ac']/[ce]/[ac']/) (3:2:2!>![F,B,DF]([df]/(3!>![bd']/[df]/[bd']/ (3[df]/[bd']/[df]/(3!>![ac']/[ce]/[ac']/) | %67
 (3:2:1[ce]3/2(3(!>![gb]/[Be]/[gb]/ (3[Be]/[gb]/[Be]/(3!>![ea]/[Ac]/[ea]/) (3:2:1[Ac]3/2(3(!>![eg]/[G=B]/[eg]/ (3[GB]/[eg]/[GB]/(3!>![d^f]/[^FB]/[df]/) | %68
!f! (3:2:1[Ece]3/2 (3([Bd]/[D^F]/[Bd]/ (3[DF]/[Bd]/[DF]/ (3!>![Ac]/[CE]/[Ac]/ (3:2:1[CE]3/2) (3(!>![Bd]/[DF]/[Bd]/ (3[DF]/[Bd]/[DF]/ (3[Ac]/[CE]/[Ac]/ | %69
"_dim." (3:2:1[CE]3/2) (3(!>![GB]/[CE]/[GB]/ (3[CE]/[GB]/[CE]/(3[FA]/[CE]/[FA]/ (3:2:1[CE]3/2) (3(!>![EG]/=B,/[EG]/ (3_C/[EG]/B,/(3[D^F]/B,/[DF]/) | %70
!p! (3(C/G,/E/(3=B,/A,/D/) (3(C/G,/E/(3B,/A,/D/) (3(C/G,/E/(3B,/A,/D/) (3(C/G,/E/(3B,/^F,/D/) | %71
!p! (3(C/G,/E/(3C/A,/F/ (3C/G,/=E/(3C/^F,/_E/[K:bass] (3=B,/G,/D/(3_B,/G,/_D/) (3(=A,/C,/C/(3_A,/D,/C/ | %72
 (3G,/E,/C/(3^F,/D,/=B,/ (3=F,/_D,/C/(3F,/=D,/B,/) (3(=E,/C,/_B,/(3_E,/C,/=A,/ (3E,/_C,/A,/(3D,/=B,,/_A,/ | %73
 (3D,/=B,,/G,/)!p!.[C,E,] .[A,,_D,F,].[D,=E,G,]"_marcato""_cresc." .[C,F,A,].[_E,^F,=A,] .[_D,G,B,].[=F,_A,=B,] | %74
 .[E,=A,C].[_A,=B,D] .[=A,CE].[F,B,DF][K:treble][Q:1/4=130] .[G,B,DG][Q:1/4=132]"^.3".[_A,_DFA][Q:1/4=134]"^.6" .[=A,=D^F=A][Q:1/4=136]"^.9".[_B,DGB] | %75
[Q:1/4=139]"^.2" .[=B,DA=B][Q:1/4=141]"^.5".[C=E=Ac][Q:1/4=143]"^.8".[_D_G_B_d][Q:1/4=146]"^.2".[=D=G=B=d][Q:1/4=148]"^.5" .[_EGce][Q:1/4=150]"^.8".[=EG_d=e][Q:1/4=153]"^.1" (3.[FA=df][Q:1/4=154]"^.6".[_GB_e_g][Q:1/4=156]"^.2".[=Gc=e=g] | %76
[M:3/4][Q:1/4=157]"^.7" [A_dfa][Q:1/4=130] z [CE=Ac] z[K:bass] [F,G,=B,] z | C,6[K:treble] |] %78
V:2
 [F,,,F,,] !tenuto![C,,C,]2 !tenuto![C,C]2 (!tenuto!=B,,^F,,C,,) | %1
 [F,,,F,,] !tenuto![C,,C,]2 !tenuto![C,C]2 (!tenuto!=B,,^F,,C,,) | %2
 [F,,,F,,] (!tenuto![C,,C,]2 [C,C]) [A,,,A,,] (!tenuto![E,,E,]2 [E,E]) | %3
 [C,,C,] ([A,,A,]2 [=A,,=A,]) [E,,E,][_C,_C] [=D,=D][A,,A,] | %4
 [=B,,=B,][G,,G,] [A,,A,][E,,-E,] [E,,E,][=B,,,B,,] [A,,,A,,][G,,,G,,] | %5
 [F,,,F,,] (!tenuto![C,,C,]2 [C,C]) !>![^F,,^F,].[=B,,,=B,,].[^F,,,F,,].[C,,,C,,] | %6
 [F,,,F,,] (!tenuto![C,,C,]2 [C,C]) !>![^F,,^F,].[=B,,,=B,,].[^F,,,F,,].[C,,,C,,] | %7
 [F,,,F,,] (!tenuto![C,,C,]2 [C,C]) [A,,,A,,] (!tenuto![E,,E,]2 [E,E]) | %8
[M:2/4] [C,,C,] (!tenuto![G,,G,]2 [G,G]) | %9
[M:4/4][K:treble] (!>![DGd] [Ee]2) [E,E] (!>![CGc] [^C^c]2)[K:bass] [=A,,=A,] | %10
 (3[D,,D,][K:treble] [B,EGB][B,EGB] (3[B,EGB][B,DGB][B,DGB] (3[B,DGB][B,^C^FB][B,CFB] [B,CFB]/[B,C=F=A]/[B,CFA]/[B,CFA]/ | %11
 !>![G,,,G,,][D,B,^C][K:treble] [B,^C]2[K:bass] !>![G,,,G,,][D,B,C][K:treble] [B,^C]2 | %12
 !>![G,,,G,,][D,G,B,][K:treble] B,2[K:bass] !>![G,,,G,,][E,^F,B,] F,2 | %13
 (3(G,,/D,/G,/B,/4^C/4F/4G/4 =A/4G/4F/4C/4(3B,/G,/D,/) (3(G,,/D,/G,/B,/4C/4F/4G/4 A/4G/4F/4C/4(3B,/G,/D,/) | %14
 (3(G,,/D,/G,/(3=A,/B,/D/ (3F/D/B,/(3G,/E,/D,/) (3(G,,/D,/E,/(3^F,/B,/^C/ (3D/C/B,/(3F,/E,/D,/-) | %15
 !>![G,,D,G,][C,,C,] !>![G,,D,G,][_C,,_C,] !>![G,,D,G,][B,,,B,,] !>![G,,D,G,][=A,,,=A,,] | %16
 !>![G,,D,G,] !tenuto![G,,,G,,]2 !tenuto![=A,,,=A,,]2 [B,,,=B,,]2 [C,,C,] | %17
[M:2/4] [=E,,=E,][_E,,_E,] _A,,[D,,D,] | %18
[M:4/4] [G,,,G,,] !tenuto![D,,D,]2 !tenuto![D,D]2 (!tenuto!^C,G,,D,,) | %19
 [G,,,G,,] !tenuto![C,,C,]2 !tenuto![C,C]2 (!tenuto![C,,C,][^F,,,^F,,][C,,C,]) | %20
 [=F,,,=F,,] !tenuto![C,,C,]2 !tenuto![C,C]2 (=B,,^F,,C,,) | %21
 [F,,,=F,,] [B,,,B,,]2 !tenuto![B,,B,]2 ([B,,,B,,]!tenuto![=E,,,=E,,][B,,,B,,]) | %22
[M:2/4] [_E,,,_E,,] (!tenuto![B,,,B,,]2 [B,,B,]) | %23
[M:4/4] [E,,E,] !tenuto![B,,B,]2 !tenuto![E,E]2[K:treble] (!tenuto![B,B]2 !tenuto!b) | %24
[K:bass]!ped! [D,,,D,,] (.[=A,,^F,].[F,=A,].[A,,F,])!ped! z!ped-up! (.[F,A,].D.[F,A,]) | %25
!ped! z (.[=A,,^F,].[F,=A,].[A,,F,])!ped-up!!ped! z (.[A,,F,].A,.[F,A,])!ped-up! | %26
!ped! [D,,,D,,] (.[=A,,F,].[F,=A,].[A,,F,])!ped-up!!ped! z (.[F,A,].D.[F,A,]) |!ped-up! %27
!ped! z (.[=A,,F,].F,.[A,,F,])!ped-up!!ped! z ([D,,A,,] F,2)!ped-up! | %28
!ped! [_D,,,_D,,] (.[_A,,F,].[F,_A,].[A,,F,])!ped-up!!ped! (.A,.[F,A,]) (.F,.[A,,F,]) |!ped-up! %29
!ped! z (.[_D,,A,,].F,.[A,,F,])!ped-up!!ped! z (.A,,A,D,,)!ped-up! | %30
!ped! ([_D,,,_D,,] .[A,,F,]) (.B,.[A,_D])!ped-up!!ped! (.A,.[_F,B,]) (.A,.[F,B,]) |!ped-up! %31
!ped! z (.[_D,,A,,]._F,.[A,,F,])!ped-up!!ped! z (.A,, A,2)!ped-up! | %32
 [C,,,C,,] !tenuto!=E2 !tenuto!_D- D4 | C,, !tenuto!=E2 !tenuto!_D- D4 | %34
 C,, !tenuto![EF]2 !tenuto!C- C4 | C,, !tenuto!E2 !tenuto!C- C4 | C,, .C.=B, ._B,.=A, ._A,.G,.^F, | %37
 z .=E,._E,.D, .^C,.=C,.=B,,._B,, |[M:2/4] .=A,,._A,,.G,,.A,, | %39
[M:4/4] !>!=E,,.A,, !>!_E,,.A,, !>!D,,.A,, !>!_D,,.A,, | %40
!p! .[C,,C,].=B,, .[C,,C,].=A,, .[C,,C,]._A,, .[C,,C,].G,, | %41
!p! !>![_G,,,_G,,].F,, !>![G,,,G,,].E,, !>![G,,,G,,].D,, !>![G,,,G,,]._D,, | %42
[M:2/4] !>![_G,,,_G,,].C,, !>![G,,,G,,].C,, | %43
[M:4/4]!pp! (3_D,,/_G,,/D,,/(3C,,/F,,,/C,,/!<(! (3D,,/G,,/D,,/(3C,,/F,,,/C,,/!<)! (3D,,/G,,/D,,/(3C,,/F,,,/C,,/ (3D,,/G,,/D,,/(3C,,/F,,,/ z/ | %44
 z"^dim." .[C,,C,].[=E,,,=E,,].[C,,C,] !>![_E,,,_E,,].[C,,C,] .[D,,,D,,]/.[_D,,,_D,,]/.[C,,,C,,] | %45
 !>![F,,,F,,].[C,,C,] !>![=E,,,=E,,].[C,,C,] !>![_E,,,_E,,].[C,,C,] !>![D,,,D,,]/!>![_D,,,_D,,]/!>![C,,,C,,] | %46
 !>![F,,,F,,].[C,,C,] !>![=E,,,=E,,].[C,,C,] !>![_E,,,_E,,].[C,,C,] !>![D,,,D,,]/!>![_D,,,_D,,]/!>![C,,,C,,] | %47
 [F,,,F,,] (!tenuto![C,,C,]2 [C,C]) [A,,,A,,] (!tenuto![E,,E,]2 [E,E]) | %48
 [C,,C,] ([A,,A,]2 [=A,,=A,]) [E,,E,][_C,_C] [=D,=D][A,,A,] | %49
 [=B,,=B,][G,,G,] [A,,A,][E,,-E,] [E,,E,][=B,,,B,,] [A,,,A,,][G,,,G,,] | %50
 [F,,,F,,] (!tenuto![C,,C,]2 [C,C]) !>![^F,,^F,].[=B,,,=B,,].[^F,,,F,,].[C,,,C,,] | %51
 [F,,,F,,] (!tenuto![C,,C,]2 [C,C]) !>![^F,,^F,].[=B,,,=B,,].[^F,,,F,,].[C,,,C,,] | %52
[M:3/4] ([F,,,F,,]C,A,) ([_G,,,_G,,]C,B,) | ([A,,,A,,]E,C) ([=A,,,=A,,]_G,E) | %54
 ([B,,,B,,]F,_D) ([=B,,,=B,,]G,F) | ([C,,C,]A,A) ([_D,,_D,]=B,B) | %56
 [D,,D,][A,,A,] [=B,=B][F,F] [=B,,B,][A,,A,] | %57
 [=B,,,=B,,][_D,,,_D,,] [=D,,,=D,,][A,,,A,,] [=E,,=E,][F,,F,] |[M:4/4] (=B, C2) G,,, (_D,=D,F,A,- | %59
 !tenuto![A,=B,] [G,C]2) G,,, (_D,=D,F,A,- | [A,=B,] [G,C]2) (G,, F,B,) (G,,,G,, | %61
 =E,C) (G,,,G,,_E,^C) (G,,,G,, |[M:2/4] D,D) (G,,,G,, | %63
[M:4/4] D,/G,,/F,/=B,,/ A,/D,/=B,/F,/ D/A,/E/B,/[K:treble] A/D/=B/F/- | %64
 [FAc])[K:bass] !>![G,,,G,,]!>![F,A,C]!>![DF][K:treble] (3!>![FAc][CFAc][CFAc] (3[CFAc][CFAc][CFAc] | %65
 (3[=B,=EG=B][B,EGB][B,EGB] (3[B,EGB][B,EGB][B,EGB] (3[_B,_E^F_B][B,EFB][B,EFB] (3[B,EFB][B,EFB][B,EFB] | %66
 (3:2:2[C,,,C,,]([G,,E,]/(3:2:2^F,)[K:treble](B,/ (3E/^F/B/(3:2:1!>![EAc]3/2)[K:bass] (3:2:2[C,,,C,,]([G,,E,]/(3:2:2F,)[K:treble](B,/ (3E/F/B/(3:2:1!>![EAc]3/2) | %67
 (3:2:2[C,,G,,]([G,,E,]/(3G,/A,/B,/[K:treble] (3C/E/G/(3:2:1!>![CA]3/2)[K:bass] (3:2:2[C,,A,,](A,,/(3E,/^F,/G,/ (3A,/=B,/D/(3:2:1!>![A,^F]3/2) | %68
 (3:2:2[C,,,C,,](E,/(3:2:2[G,,^F,])(B,/ [F,D]) z (3([C,,G,,]/C,/E,/(3F,/B,/C/ D) z | %69
 (3:2:2[C,,G,,](A,,/(3:2:2E,)(G,/ B,) z (3([C,,G,,]/A,,/C,/(3D,/^F,/G,/ A,) z | %70
 .C,!>![F,,,F,,] .C,!>![=E,,,=E,,] .C,!>![_E,,,_E,,] .C,!>![D,,,D,,] | %71
 .C, !tenuto![C,,,C,,]2 !tenuto![D,,,D,,]2 !tenuto![=E,,,=E,,]2 !tenuto![F,,,F,,] | %72
 [B,,,B,,][A,,,A,,]_D,,[G,,,G,,]- [G,,,G,,][_G,,,_G,,]_C,,[F,,,F,,]- | %73
 [F,,,F,,].[A,,,A,,] .[_D,,,_D,,].[B,,,B,,] .[=D,,,=D,,].[C,,C,] .[=E,,,=E,,].[D,,D,] | %74
 .[F,,,F,,].[F,,F,] .[^F,,,^F,,].[_G,,_G,] .[=F,,F,].[_D,,_D,] .[=B,,,=B,,].[A,,,A,,] | %75
 .[F,,,F,,].[B,,B,] .[_G,,_G,].[=E,,=E,] .[_D,,_D,].[B,,,B,,] (3.[_E,_E].[C,C].[_A,,_A,] | %76
[M:3/4] [F,,_D,F,] z [^F,,C,^F,] z [G,,,D,,G,,] z | [C,,,C,,]6 |] %78
V:3
 x8 | x8 | x8 | x8 | x8 | x8 | x8 | x8 |[M:2/4] x4 |[M:4/4][K:treble] x7[K:bass] x | %10
 x2/3[K:treble] x22/3 | x2[K:treble] (!>![FA][EGB])[K:bass] x2[K:treble] (!>![FA][EGB]) | %12
 x2[K:treble] (!>![DF][EG])[K:bass] x2 (!>![B,D][=A,E]) | x8 | x8 | x8 | x8 |[M:2/4] x4 | %18
[M:4/4] x8 | x8 | x8 | x8 |[M:2/4] x4 |[M:4/4] x5[K:treble] x3 |[K:bass] x6 !tenuto!^F2 | %25
 x121/20 !tenuto!=A,2 | x6 !tenuto!F2 | x41/20 !tenuto!D2 x2 !tenuto!B,2 | %28
 x4 !tenuto!F2 !tenuto!_D2- | D2 !tenuto!B,4 !tenuto!A,2 | x2 A2 !tenuto!E2 !tenuto!_D2- | %31
 D2 !tenuto!B,4 !tenuto!A,2 | z ._D.C .=B,._B, .=A,._A,.G, | x ._D.C .=B,._B, .=A,._A,.G, | %34
 x ._D.C .B,.=A, ._A,.G,._G, | x .[_DF].C .=B,.=A, ._A,._G,.F, | %36
 x !tenuto![=E=A]2 !tenuto![CE^G]2 !tenuto![C=G]2 x | !>!C,,8- |[M:2/4] C,,4- |[M:4/4] C,,8 | x8 | %41
 x8 |[M:2/4] x4 |[M:4/4] x8 | x8 | x8 | x8 | x8 | x8 | x8 | x8 | x8 |[M:3/4] x6 | x6 | x6 | x6 | %56
 x6 | x6 |[M:4/4] [G,,E,]3 x5 | E,3 x5 | E,3 x5 | x8 |[M:2/4] x4 |[M:4/4] x6[K:treble] x2 | %64
 x[K:bass] x3[K:treble] x4 | x8 | x5/3[K:treble] x7/3[K:bass] x5/3[K:treble] x7/3 | %67
 x2[K:treble] x2[K:bass] x4 | x8 | x8 | x8 | x8 | x8 | x8 | x8 | x8 |[M:3/4] x6 | %77
 z3/2 [G,,C,E,G,]/ !fermata![E,E]4 |] %78
V:4
 x8 | x8 | x8 | x8 | x8 | x8 | x8 | x8 |[M:2/4] x4 |[M:4/4] x8 | x8 | x8 | x8 | x8 | x8 | x8 | x8 | %17
[M:2/4] x4 |[M:4/4] x8 | x8 | x8 | x8 |[M:2/4] x4 |[M:4/4] x8 | x8 | x161/20 | %26
[I:staff +1] =F,2 x6 | x161/20 | F,2 x6 | x161/20 | !tenuto!_F,2 x6 | x161/20 | !tenuto!=E, x7 | %33
 x8 | x8 | x8 | x8 | F, x6[I:staff -1][K:bass] x |[M:2/4] x4 |[M:4/4] x8 | x8 | x8 |[M:2/4] x4 | %43
[M:4/4] x8 | x8 | x[K:treble] x7 | x[K:treble] x7 | x8 | x8 | x8 | x8 | x8 |[M:3/4] x6 | x6 | x6 | %55
 x6 | x6 | x6 |[M:4/4] x8 | x8 | x8 | x8 |[M:2/4] x4 |[M:4/4] x8 | x8 | x8 | x8 | x8 | x8 | x8 | %70
 x8 | x4[K:bass] x4 | x8 | x8 | x4[K:treble] x4 | x8 |[M:3/4] x4[K:bass] x2 | %77
 z3/2[K:treble] [egc'e']/ !fermata![cc']4 |] %78

